X: 4110
T: GENERAL DRUMMOND
R: Reel.
%R: reel
B: James Kerr "Merry Melodies" v.4 p.14 #110
Z: 2016 John Chambers <jc:trillian.mit.edu>
M: C|
L: 1/8
K: G
ud |\
BG G/G/G (Bc)dg | BGgB aAAd |\
BG G/G/G (Bc)de | dega bgg ::\
a |\
(bg)(fg) (eg)(dg) |
(cg)(Bg) aAAd |\
[1 (bg)(fg) (eg)dg | efga bgg :|\
[2 BGcA dBge | dBcA BGG |]

%%sep 1 1 500
%%sep 1 1 500

